X: 100453
T: ARTHUR'S SEAT WALTZ #2
C: Louis J. Collins, Edinburgh
R: waltz
B: K\"ohler's Violin Repository, v.3, 1885 p.285 #2
F: http://www.archive.org/details/klersviolinrepos03rugg
Z: 2012 John Chambers <jc:trillian.mit.edu>
N: The F-flat in bars 6 and 22 is a bit odd.  Maybe it should be natural?
M: 3/4
L: 1/8
P: 2nd time, 8va.
K: G
uG,2 !segno!|\
(B,2C2^C2) | (D4E2) | (E4D2) | D6 |\
(B,2C2^C2) | D4_F2 | (F4E2) | E6 |\
(F2G2^G2) | (A4B2) | (B4A2) | A6 |
(F2G2^G2) | (A4c2) | (c4B2) | B6 |\
(B,2C2^C2) | (D4E2) | (E4D2) | D6 |\
(B,2C2^C2) | (D4_F2) | (F4E2) | E6 |
(F2G2^G2) | (A4B2) | (c4B2) | e6 | (B2A2G2) |\
[1 (.F4.F2) | E6- | E4 :|[2 (.F4.a2) | g6- | g2z2 \
|: uG2 |\
.F.G.A.B.c.d | e2z2ug2 | f2z2vFuF | F2z2uA2 |
.G.A.B.c.d.e | f2z2ua2 | g2z2vGuG | G2z2uB2 |\
.A.B.c.d.e.f | g2z2ub2 | a2z2vAuA | A2(a2g2) |\
(f2e2d2) | (^c4d2) |[1 b6- | b4 :|[2 c2B2A2 | G2D2C2 !segno!"_D.C."|]

%%sep 2 1 500

